public/images/logo.kompedent.svg

<svg xmlns="http://www.w3.org/2000/svg" width="269" height="82" viewBox="0, 0, 269, 82"><g><path d="M-.03 55.596h270.06" stroke="#004F9F" stroke-width="1.5" stroke-miterlimit="3.864" fill="none"/><path d="M70.397 80.678h11.56v-1.716h-9.248l8.875-14.991v-1.79h-10.739v1.716h8.427l-8.875 14.991v1.79zM91.951 80.678h1.79v-8.95c0-1.641-.298-4.102-4.326-4.102-3.505 0-4.549 1.939-4.624 3.58h2.014c.149-.97.522-2.014 2.61-2.014.97 0 2.014.373 2.312 1.79.075.447.075 1.79.075 2.461-.448.075-.82.075-1.268.075-2.237 0-6.116.969-6.116 3.952 0 2.312 1.343 3.58 3.431 3.58 2.312 0 3.58-1.342 3.953-2.013h.074v1.641h.075zm0-5.743c0 1.566-.149 1.79-.447 2.61-.522 1.268-1.79 2.014-2.984 2.014-.969 0-1.79-.671-1.79-1.865 0-2.163 2.835-2.685 4.177-2.685h1.044v-.074zM98.813 80.678h1.79v-5.296c0-2.312 1.193-5.966 3.654-5.966 1.865 0 1.865 1.939 1.865 4.176v7.086h1.79v-9.099c0-2.089-1.119-3.953-3.282-3.953-2.834 0-3.655 2.237-4.027 3.281h-.075v-8.726h-1.79v18.497h.075zM113.058 80.678h1.79v-5.296c0-2.312 1.193-5.966 3.654-5.966 1.865 0 1.865 1.939 1.865 4.176v7.086h1.79v-9.099c0-2.089-1.119-3.953-3.282-3.953-2.834 0-3.654 2.237-4.027 3.281h-.075v-2.983h-1.79v12.754h.075zM133.344 79.186c-.373.149-.671.224-1.268.224-1.865 0-2.088-1.343-2.088-2.163v-7.831h3.431v-1.566h-3.431v-4.103l-1.79 1.119v2.984h-2.088v1.566h2.088v8.278c0 2.312.97 3.282 3.58 3.282.522 0 1.044-.075 1.641-.149v-1.641h-.075zM145.277 79.111c-.597.149-1.119.373-2.536.373-3.654 0-4.549-3.654-4.549-5.593v-.746h7.384v-.597c0-2.759-1.418-4.848-4.476-4.848-3.43 0-4.997 2.461-4.997 6.265 0 4.699 2.313 7.085 6.265 7.085 1.194 0 2.163-.149 2.909-.372v-1.567zm-6.861-7.532c.149-.896.745-2.387 2.684-2.387 1.865 0 2.462 1.566 2.462 2.387h-5.146zM158.031 79.186c-.672.224-1.641.298-2.089.298-4.251 0-5.071-3.431-5.071-5.817 0-1.939.746-4.475 3.057-4.475 1.716 0 2.313 1.268 2.313 2.685h2.163c0-2.014-.97-4.177-4.401-4.177-3.654 0-5.221 2.536-5.221 6.414 0 4.624 2.462 7.011 6.564 7.011 1.193 0 1.864-.075 2.685-.373v-1.566zM161.984 80.678h1.789v-5.296c0-2.312 1.194-5.966 3.655-5.966 1.865 0 1.865 1.939 1.865 4.176v7.086h1.789v-9.099c0-2.089-1.118-3.953-3.281-3.953-2.834 0-3.655 2.237-4.028 3.281h-.074v-8.726h-1.79v18.497h.075zM176.229 80.678h1.789v-5.296c0-2.312 1.194-5.966 3.655-5.966 1.864 0 1.864 1.939 1.864 4.176v7.086h1.79v-9.099c0-2.089-1.118-3.953-3.281-3.953-2.834 0-3.654 2.237-4.028 3.281h-.074v-2.983h-1.715v12.754zM190.623 80.678h1.79v-12.754h-1.79v12.754zm-.299-16.11h2.387v-2.387h-2.387v2.387zM197.708 80.678h1.79v-6.787h.075l4.997 6.787h2.237l-5.146-7.086 4.549-5.668h-2.162l-4.475 5.37h-.075v-11.113h-1.79v18.497z"/><path d="M253.048 23.1h5.444v22.226h-5.444v-22.226z" fill="#004F9F"/><path d="M10.209 37.942h2.685v-14.021h.15l10.516 14.021h3.505l-10.74-14.096 9.547-11.486h-3.431l-9.547 11.188v-22.673h-2.685v37.067zM40.564 38.464c7.235 0 10.442-5.892 10.442-13.35 0-7.458-3.133-13.425-10.442-13.425-7.234 0-10.516 5.967-10.516 13.425 0 7.458 3.282 13.35 10.516 13.35zm-7.234-12.977c0-5.967 1.641-11.187 7.16-11.187s7.383 5.22 7.383 11.187-1.864 10.441-7.383 10.441-7.16-4.474-7.16-10.441zM57.867 37.942h2.685v-9.77c0-7.011 3.506-13.798 8.13-13.798 3.356 0 3.356 4.848 3.356 7.458v16.11h2.685v-10.292c0-6.712 3.132-13.35 7.309-13.35 4.176 0 4.102 4.848 4.102 7.458v16.184h2.685v-18.869c0-6.414-3.804-7.234-6.638-7.234-4.55 0-6.563 3.952-7.235 6.264h-.149c0-2.237-1.118-6.264-6.041-6.264-5.892 0-7.383 4.4-8.129 6.861h-.075v-6.265h-2.685v25.507zM97.619 49.428h2.685v-16.184h.075c.671 2.162 2.386 5.295 7.383 5.295 3.953 0 8.801-2.611 8.801-13.649 0-11.038-4.922-13.126-8.801-13.126-4.997 0-6.637 3.132-7.383 5.295h-.075v-4.699h-2.685v37.068zm2.834-24.538c0-4.474 2.238-10.59 7.011-10.59 3.953 0 5.967 3.281 5.967 10.441s-2.014 11.113-5.967 11.113c-5.966.074-7.011-7.831-7.011-10.964zM139.087 35.257c-1.268.448-3.207.671-4.699.671-9.77 0-9.845-9.099-9.845-11.038 0-.895 0-1.715.075-2.61h14.991v-1.342c0-4.326-2.238-9.174-8.502-9.174-6.265 0-9.696 4.251-9.696 12.679 0 8.95 4.326 14.096 12.157 14.096 2.163 0 4.027-.299 5.593-.672v-2.61h-.074zm-14.096-15.587c.298-1.641 1.342-5.37 6.041-5.37 4.326 0 5.37 3.803 5.37 5.37h-11.411zM194.949 33.84c-1.119.373-2.611.895-4.848.895-7.011 0-9.398-6.712-9.398-11.486h14.842v-1.267c0-6.042-2.983-10.293-9.248-10.293-3.282 0-10.441 1.194-10.441 12.157 0 10.069 4.922 14.618 12.678 14.618 2.76 0 4.326-.373 6.415-.895v-3.729zm-14.022-13.798c0-1.118 1.119-4.474 5.072-4.474 3.729 0 4.698 2.908 4.698 4.474h-9.77zM201.512 37.942h4.848v-10.814c0-5.072 2.759-10.442 6.787-10.442 3.505 0 3.505 2.611 3.505 7.384v13.872h4.848v-17.75c0-3.133-.97-8.428-6.862-8.428-5.221 0-7.234 3.953-8.129 6.041h-.075v-5.444h-4.848v25.581h-.074zM242.979 34.362c-.671.224-1.715.373-2.61.373-3.729 0-4.102-2.685-4.102-4.997v-13.648h7.085v-3.73h-7.085v-9.024l-4.848 2.983v6.041h-4.55v3.73h4.55v16.184c0 3.505 1.492 6.265 7.682 6.265 1.268 0 2.61-.075 3.804-.373v-3.804h.074zM155.718.875h-9.471v15.14h5.37v-10.889h3.132c6.787 0 10.74 2.387 10.74 14.245 0 11.635-3.953 14.171-10.665 14.245h-.97v4.326h1.939c8.577 0 15.588-3.281 15.588-18.645-.075-12.232-4.401-18.422-15.663-18.422z"/></g></svg>

<?xml version="1.0" encoding="UTF-8"?>
<!DOCTYPE svg PUBLIC "-//W3C//DTD SVG 1.1//EN" "http://www.w3.org/Graphics/SVG/1.1/DTD/svg11.dtd">
<svg version="1.1" xmlns="http://www.w3.org/2000/svg" xmlns:xlink="http://www.w3.org/1999/xlink" x="0" y="0" width="269" height="82" viewBox="0, 0, 269, 82">
  <g id="Ebene_2"/>
  <g id="Ebene_2">
    <path d="M-0.03,55.596 L270.03,55.596" fill-opacity="0" stroke="#004F9F" stroke-width="1.5" stroke-miterlimit="3.864"/>
    <path d="M70.397,80.678 L81.957,80.678 L81.957,78.962 L72.709,78.962 L81.584,63.971 L81.584,62.181 L70.845,62.181 L70.845,63.897 L79.272,63.897 L70.397,78.888 L70.397,80.678 z" fill="#000000"/>
    <path d="M91.951,80.678 L93.741,80.678 L93.741,71.728 C93.741,70.087 93.443,67.626 89.415,67.626 C85.91,67.626 84.866,69.565 84.791,71.206 L86.805,71.206 C86.954,70.236 87.327,69.192 89.415,69.192 C90.385,69.192 91.429,69.565 91.727,70.982 C91.802,71.429 91.802,72.772 91.802,73.443 C91.354,73.518 90.982,73.518 90.534,73.518 C88.297,73.518 84.418,74.487 84.418,77.47 C84.418,79.782 85.761,81.05 87.849,81.05 C90.161,81.05 91.429,79.708 91.802,79.037 L91.876,79.037 L91.876,80.678 L91.951,80.678 z M91.951,74.935 C91.951,76.501 91.802,76.725 91.504,77.545 C90.982,78.813 89.714,79.559 88.52,79.559 C87.551,79.559 86.73,78.888 86.73,77.694 C86.73,75.531 89.565,75.009 90.907,75.009 L91.951,75.009 L91.951,74.935 z" fill="#000000"/>
    <path d="M98.813,80.678 L100.603,80.678 L100.603,75.382 C100.603,73.07 101.796,69.416 104.257,69.416 C106.122,69.416 106.122,71.355 106.122,73.592 L106.122,80.678 L107.912,80.678 L107.912,71.579 C107.912,69.49 106.793,67.626 104.63,67.626 C101.796,67.626 100.975,69.863 100.603,70.907 L100.528,70.907 L100.528,62.181 L98.738,62.181 L98.738,80.678 L98.813,80.678 z" fill="#000000"/>
    <path d="M113.058,80.678 L114.848,80.678 L114.848,75.382 C114.848,73.07 116.041,69.416 118.502,69.416 C120.367,69.416 120.367,71.355 120.367,73.592 L120.367,80.678 L122.157,80.678 L122.157,71.579 C122.157,69.49 121.038,67.626 118.875,67.626 C116.041,67.626 115.221,69.863 114.848,70.907 L114.773,70.907 L114.773,67.924 L112.983,67.924 L112.983,80.678 L113.058,80.678 z" fill="#000000"/>
    <path d="M133.344,79.186 C132.971,79.335 132.673,79.41 132.076,79.41 C130.211,79.41 129.988,78.067 129.988,77.247 L129.988,69.416 L133.419,69.416 L133.419,67.85 L129.988,67.85 L129.988,63.747 L128.198,64.866 L128.198,67.85 L126.11,67.85 L126.11,69.416 L128.198,69.416 L128.198,77.694 C128.198,80.006 129.168,80.976 131.778,80.976 C132.3,80.976 132.822,80.901 133.419,80.827 L133.419,79.186 L133.344,79.186 z" fill="#000000"/>
    <path d="M145.277,79.111 C144.68,79.26 144.158,79.484 142.741,79.484 C139.087,79.484 138.192,75.83 138.192,73.891 L138.192,73.145 L145.576,73.145 L145.576,72.548 C145.576,69.789 144.158,67.7 141.1,67.7 C137.67,67.7 136.103,70.161 136.103,73.965 C136.103,78.664 138.416,81.05 142.368,81.05 C143.562,81.05 144.531,80.901 145.277,80.678 L145.277,79.111 L145.277,79.111 z M138.416,71.579 C138.565,70.683 139.161,69.192 141.1,69.192 C142.965,69.192 143.562,70.758 143.562,71.579 L138.416,71.579 L138.416,71.579 z" fill="#000000"/>
    <path d="M158.031,79.186 C157.359,79.41 156.39,79.484 155.942,79.484 C151.691,79.484 150.871,76.053 150.871,73.667 C150.871,71.728 151.617,69.192 153.928,69.192 C155.644,69.192 156.241,70.46 156.241,71.877 L158.404,71.877 C158.404,69.863 157.434,67.7 154.003,67.7 C150.349,67.7 148.782,70.236 148.782,74.114 C148.782,78.738 151.244,81.125 155.346,81.125 C156.539,81.125 157.21,81.05 158.031,80.752 L158.031,79.186 L158.031,79.186 z" fill="#000000"/>
    <path d="M161.984,80.678 L163.773,80.678 L163.773,75.382 C163.773,73.07 164.967,69.416 167.428,69.416 C169.293,69.416 169.293,71.355 169.293,73.592 L169.293,80.678 L171.082,80.678 L171.082,71.579 C171.082,69.49 169.964,67.626 167.801,67.626 C164.967,67.626 164.146,69.863 163.773,70.907 L163.699,70.907 L163.699,62.181 L161.909,62.181 L161.909,80.678 L161.984,80.678 z" fill="#000000"/>
    <path d="M176.229,80.678 L178.018,80.678 L178.018,75.382 C178.018,73.07 179.212,69.416 181.673,69.416 C183.537,69.416 183.537,71.355 183.537,73.592 L183.537,80.678 L185.327,80.678 L185.327,71.579 C185.327,69.49 184.209,67.626 182.046,67.626 C179.212,67.626 178.392,69.863 178.018,70.907 L177.944,70.907 L177.944,67.924 L176.229,67.924 L176.229,80.678 L176.229,80.678 z" fill="#000000"/>
    <path d="M190.623,80.678 L192.413,80.678 L192.413,67.924 L190.623,67.924 L190.623,80.678 L190.623,80.678 z M190.324,64.568 L192.711,64.568 L192.711,62.181 L190.324,62.181 L190.324,64.568 L190.324,64.568 z" fill="#000000"/>
    <path d="M197.708,80.678 L199.498,80.678 L199.498,73.891 L199.573,73.891 L204.57,80.678 L206.807,80.678 L201.661,73.592 L206.21,67.924 L204.048,67.924 L199.573,73.294 L199.498,73.294 L199.498,62.181 L197.708,62.181 L197.708,80.678 z" fill="#000000"/>
    <path d="M253.048,23.1 L258.492,23.1 L258.492,45.326 L253.048,45.326 L253.048,23.1 z" fill="#004F9F"/>
    <path d="M10.209,37.942 L12.894,37.942 L12.894,23.921 L13.044,23.921 L23.56,37.942 L27.065,37.942 L16.325,23.846 L25.872,12.36 L22.441,12.36 L12.894,23.548 L12.894,0.875 L10.209,0.875 L10.209,37.942 z" fill="#000000"/>
    <path d="M40.564,38.464 C47.799,38.464 51.006,32.572 51.006,25.114 C51.006,17.656 47.873,11.689 40.564,11.689 C33.33,11.689 30.048,17.656 30.048,25.114 C30.048,32.572 33.33,38.464 40.564,38.464 L40.564,38.464 z M33.33,25.487 C33.33,19.52 34.971,14.3 40.49,14.3 C46.009,14.3 47.873,19.52 47.873,25.487 C47.873,31.454 46.009,35.928 40.49,35.928 C34.971,35.928 33.33,31.454 33.33,25.487 L33.33,25.487 z" fill="#000000"/>
    <path d="M57.867,37.942 L60.552,37.942 L60.552,28.172 C60.552,21.161 64.058,14.374 68.682,14.374 C72.038,14.374 72.038,19.222 72.038,21.832 L72.038,37.942 L74.723,37.942 L74.723,27.65 C74.723,20.938 77.855,14.3 82.032,14.3 C86.208,14.3 86.134,19.148 86.134,21.758 L86.134,37.942 L88.819,37.942 L88.819,19.073 C88.819,12.659 85.015,11.839 82.181,11.839 C77.631,11.839 75.618,15.791 74.946,18.103 L74.797,18.103 C74.797,15.866 73.679,11.839 68.756,11.839 C62.864,11.839 61.373,16.239 60.627,18.7 L60.552,18.7 L60.552,12.435 L57.867,12.435 L57.867,37.942 L57.867,37.942 z" fill="#000000"/>
    <path d="M97.619,49.428 L100.304,49.428 L100.304,33.244 L100.379,33.244 C101.05,35.406 102.765,38.539 107.762,38.539 C111.715,38.539 116.563,35.928 116.563,24.89 C116.563,13.852 111.641,11.764 107.762,11.764 C102.765,11.764 101.125,14.896 100.379,17.059 L100.304,17.059 L100.304,12.36 L97.619,12.36 L97.619,49.428 L97.619,49.428 z M100.453,24.89 C100.453,20.416 102.691,14.3 107.464,14.3 C111.417,14.3 113.431,17.581 113.431,24.741 C113.431,31.901 111.417,35.854 107.464,35.854 C101.498,35.928 100.453,28.023 100.453,24.89 L100.453,24.89 z" fill="#000000"/>
    <path d="M139.087,35.257 C137.819,35.705 135.88,35.928 134.388,35.928 C124.618,35.928 124.543,26.829 124.543,24.89 C124.543,23.995 124.543,23.175 124.618,22.28 L139.609,22.28 L139.609,20.938 C139.609,16.612 137.371,11.764 131.107,11.764 C124.842,11.764 121.411,16.015 121.411,24.443 C121.411,33.393 125.737,38.539 133.568,38.539 C135.731,38.539 137.595,38.24 139.161,37.867 L139.161,35.257 L139.087,35.257 z M124.991,19.67 C125.289,18.029 126.333,14.3 131.032,14.3 C135.358,14.3 136.402,18.103 136.402,19.67 L124.991,19.67 L124.991,19.67 z" fill="#000000"/>
    <path d="M194.949,33.84 C193.83,34.213 192.338,34.735 190.101,34.735 C183.09,34.735 180.703,28.023 180.703,23.249 L195.545,23.249 L195.545,21.982 C195.545,15.94 192.562,11.689 186.297,11.689 C183.015,11.689 175.856,12.883 175.856,23.846 C175.856,33.915 180.778,38.464 188.534,38.464 C191.294,38.464 192.86,38.091 194.949,37.569 L194.949,33.84 L194.949,33.84 z M180.927,20.042 C180.927,18.924 182.046,15.568 185.999,15.568 C189.728,15.568 190.697,18.476 190.697,20.042 L180.927,20.042 L180.927,20.042 z" fill="#000000"/>
    <path d="M201.512,37.942 L206.36,37.942 L206.36,27.128 C206.36,22.056 209.119,16.686 213.147,16.686 C216.652,16.686 216.652,19.297 216.652,24.07 L216.652,37.942 L221.5,37.942 L221.5,20.192 C221.5,17.059 220.53,11.764 214.638,11.764 C209.417,11.764 207.404,15.717 206.509,17.805 L206.434,17.805 L206.434,12.361 L201.586,12.361 L201.586,37.942 L201.512,37.942 z" fill="#000000"/>
    <path d="M242.979,34.362 C242.308,34.586 241.264,34.735 240.369,34.735 C236.64,34.735 236.267,32.05 236.267,29.738 L236.267,16.09 L243.352,16.09 L243.352,12.36 L236.267,12.36 L236.267,3.336 L231.419,6.319 L231.419,12.36 L226.869,12.36 L226.869,16.09 L231.419,16.09 L231.419,32.274 C231.419,35.779 232.911,38.539 239.101,38.539 C240.369,38.539 241.711,38.464 242.905,38.166 L242.905,34.362 L242.979,34.362 z" fill="#000000"/>
    <path d="M155.718,0.875 L146.247,0.875 L146.247,16.015 L151.617,16.015 L151.617,5.126 L154.749,5.126 C161.536,5.126 165.489,7.513 165.489,19.371 C165.489,31.006 161.536,33.542 154.824,33.616 L153.854,33.616 L153.854,37.942 L155.793,37.942 C164.37,37.942 171.381,34.661 171.381,19.297 C171.306,7.065 166.98,0.875 155.718,0.875 z" fill="#000000"/>
  </g>
</svg>
